findly-builder/apps/searchassist/src/assets/images/markup/b-bold.svg

<?xml version="1.0" encoding="UTF-8"?>
<svg width="10px" height="12px" viewBox="0 0 10 12" version="1.1" xmlns="http://www.w3.org/2000/svg" xmlns:xlink="http://www.w3.org/1999/xlink">
    <title>icons8-bold</title>
    <g id="Page-1" stroke="none" stroke-width="1" fill="none" fill-rule="evenodd">
        <g id="Custom-Preset-Copy" transform="translate(-630.000000, -95.000000)" fill="#FFFFFF" fill-rule="nonzero">
            <g id="icons8-bold" transform="translate(630.000000, 95.000000)">
                <path d="M0.526315789,0 C0.235402895,0 0,0.243963 0,0.545454545 C0,0.846946091 0.235402895,1.09090909 0.526315789,1.09090909 L1.05263158,1.09090909 L1.05263158,10.9090909 L0.526315789,10.9090909 C0.235402895,10.9090909 0,11.1530539 0,11.4545455 C0,11.756037 0.235402895,12 0.526315789,12 L6.57894737,12 C8.465255,12 10,10.4094461 10,8.45454545 C10,7.01953118 9.17249184,5.78373573 7.98622526,5.22656236 C8.57524684,4.67684673 8.94736842,3.88316755 8.94736842,3 C8.94736842,1.34552564 7.64802632,0 6.05263158,0 L0.526315789,0 Z M3.68421053,1.09090909 L5,1.09090909 C6.015625,1.09090909 6.84210526,1.94744318 6.84210526,3 C6.84210526,4.05255682 6.015625,4.90909091 5,4.90909091 L3.68421053,4.90909091 L3.68421053,1.09090909 Z M3.68421053,6 L5,6 C6.30551,6 7.36842105,7.10156236 7.36842105,8.45454545 C7.36842105,9.80752855 6.30551,10.9090909 5,10.9090909 L3.68421053,10.9090909 L3.68421053,6 Z" id="Shape"></path>
            </g>
        </g>
    </g>
</svg>

<svg width="10" height="12" xmlns="http://www.w3.org/2000/svg"><path d="M.526 0A.536.536 0 0 0 0 .545c0 .302.235.546.526.546h.527v9.818H.526a.536.536 0 0 0-.526.546c0 .301.235.545.526.545H6.58C8.465 12 10 10.41 10 8.455c0-1.435-.828-2.671-2.014-3.228.59-.55.961-1.344.961-2.227 0-1.654-1.299-3-2.894-3H.526Zm3.158 1.09H5c1.016 0 1.842.857 1.842 1.91S6.016 4.91 5 4.91H3.684V1.09Zm0 4.91H5c1.306 0 2.368 1.102 2.368 2.455S6.306 10.909 5 10.909H3.684V6Z" fill="#FFF"/></svg>
